img/ELDUser.svg

<svg height="113" viewBox="0 0 95 113" width="95" xmlns="http://www.w3.org/2000/svg"><g fill="none" fill-rule="evenodd" transform="translate(.88 .59)"><path d="m91.425 29.325v3.45h-20.7v-6.9h17.25c1.909 0 3.45 1.541 3.45 3.45z" fill="#1a68a6"/><path d="m70.725 25.875v6.9s-8.533-4.6-26.45-4.6c-13.961 0-24.15 4.6-24.15 4.6v-13.8s-.759-17.25 25.3-17.25 25.3 16.1 25.3 16.1z" fill="#1c75bc"/><path d="m79.649 90.321c-1.518.391-8.924 3.128-8.924 19.504h-50.6c0-16.054-7.107-18.998-8.832-19.458 3.036-2.116 7.038-4.14 12.282-5.842 0 0 7.843-4.094 10.35-6.9 0 0 .506 8.05 11.5 8.05s11.5-8.05 11.5-8.05c2.507 2.806 10.35 6.9 10.35 6.9 5.313 1.679 9.338 3.703 12.374 5.796z" fill="#e7eced"/><path d="m89.125 104.075v5.75h-18.4c0-16.376 7.406-19.113 8.924-19.504 9.43 6.532 9.476 13.754 9.476 13.754z" fill="#eac4a4"/><path d="m20.125 109.825h-18.4v-5.75s.115-7.199 9.568-13.708c1.725.46 8.832 3.404 8.832 19.458z" fill="#eac4a4"/><g fill="#d1b197"><path d="m56.925 75.325v2.3s-.506 8.05-11.5 8.05-11.5-8.05-11.5-8.05v-2.3-5.014c3.358 1.748 7.222 2.714 11.5 2.714s8.142-.966 11.5-2.714z"/><path d="m70.725 38.525c3.818 0 6.9 1.426 6.9 4.6 0 2.944-3.634 6.348-7.199 6.831.207-1.472.299-2.99.299-4.531z"/><path d="m20.125 45.425c0 1.541.092 3.059.299 4.531-3.565-.483-7.199-3.887-7.199-6.831 0-3.174 3.082-4.6 6.9-4.6z"/></g><path d="m70.725 38.525v6.9c0 1.541-.092 3.059-.299 4.531-1.242 8.993-6.118 16.537-13.501 20.355-3.358 1.748-7.222 2.714-11.5 2.714s-8.142-.966-11.5-2.714c-7.383-3.818-12.259-11.362-13.501-20.355-.207-1.472-.299-2.99-.299-4.531v-6.9-5.75s10.189-4.6 24.15-4.6c17.917 0 26.45 4.6 26.45 4.6z" fill="#eac4a4"/><path d="m54.625 13.225v6.9h-9.2-9.2v-6.9s.713-2.3 9.2-2.3 9.2 2.3 9.2 2.3z" fill="#fff"/><path d="m93.15 34.5v-5.175c0-2.85338-2.32162-5.175-5.175-5.175h-15.525v-6.29694c.01748-.61893.02392-5.86017-4.4436-10.54343-4.62714-4.85047-12.22473-7.30963-22.5814-7.30963-10.04456 0-17.50737 2.47618-22.18074 7.35977-4.88842 5.10807-4.8622 11.00872-4.84426 11.64329v17.89032c-4.29916.47564-6.9 2.77173-6.9 6.23162 0 3.41803 3.44609 7.13391 7.40508 8.26758 1.52881 8.77864 6.30844 15.94728 13.29492 19.94031v5.58992c-2.18178 2.05804-7.24684 4.92729-9.29752 6.00691-4.945 1.61713-9.18229 3.64297-12.58767 6.01634-10.06963 6.93358-10.30929 14.77106-10.31458 15.10111l-.00023 7.50283h90.85v-7.48604c-.0023-.33143-.16744-8.19858-10.22189-15.16321-3.45782-2.38395-7.7257-4.39369-12.68634-5.97425-2.05436-1.08192-7.11183-3.94749-9.29154-6.00392v-5.58992c6.98878-3.99579 11.76772-11.16512 13.29492-19.94031 3.95899-1.13367 7.40485-4.84932 7.40485-8.26735 0-3.46012-2.60084-5.75598-6.9-6.23162v-2.39338zm-20.7-6.9h15.525c.95128 0 1.725.77372 1.725 1.725v1.725h-17.25zm-46.66194-17.90803c4.00338-4.14184 10.61013-6.24197 19.63694-6.24197 9.32788 0 16.0655 2.07897 20.02541 6.17895 3.65792 3.78741 3.55718 7.94972 3.55143 8.11463l-.00161 12.41724c-3.81064-1.42048-11.937-3.71082-24.72523-3.71082-10.29802 0-18.52972 2.40741-22.425 3.79776v-11.27276l-.00138-.06739c-.0069-.20286-.12213-5.014 3.93944-9.21564zm-10.83806 33.43303c0-.74336.37559-2.33312 3.45-2.76414 0 0 .02323 6.46875.06118 7.15024-1.98697-1.05915-3.51118-2.97712-3.51118-4.3861zm40.25 34.41743c-.02944.25254-.24633 1.75145-1.38138 3.20252-1.66382 2.12681-4.48799 3.20505-8.39362 3.20505s-6.72957-1.07824-8.39362-3.20528c-1.13528-1.45107-1.35217-2.94998-1.38138-3.20252v-4.56412c3.03186 1.17507 6.30752 1.77169 9.775 1.77169 3.46817 0 6.74452-.59685 9.775-1.77123zm-51.75 26.55281c.00851-.24196.31556-6.10719 8.11302-11.8036 1.97018.87469 6.40711 4.13793 6.80708 15.80836h-14.9201zm83.95-.00207v4.00683h-14.91596c.2024-5.64443 1.40829-10.11839 3.52429-13.00029 1.24959-1.702 2.54518-2.49481 3.3649-2.85545 7.71926 5.67134 8.01619 11.50092 8.02677 11.84891zm-20.6448-17.92344c3.5282 1.11504 6.66793 2.45042 9.37135 3.98291-.92759.66309-1.93775 1.59551-2.89915 2.9049-2.57968 3.51325-3.98636 8.57072-4.19635 15.04223h-47.2121c-.20608-6.35697-1.5663-11.35027-4.05766-14.85156-.9844-1.38345-2.02653-2.35911-2.98057-3.04681 2.68019-1.53962 5.80451-2.89248 9.32673-4.03581 0 0 5.65156-2.95205 8.91296-5.44272.27876.61985.64883 1.28708 1.14908 1.95799 1.60517 2.15303 4.86105 4.71914 11.25551 4.71914s9.65034-2.56611 11.25574-4.71891c.50025-.67091.87032-1.33814 1.14908-1.95799 3.26117 2.49067 8.92538 5.44663 8.92538 5.44663zm9.1448-43.04473c0 1.40898-1.52421 3.32718-3.51118 4.3861.03795-.68172.06118-7.15024.06118-7.15024 3.07441.43102 3.45 2.02078 3.45 2.76414zm-6.9 2.3c0 1.51501-.09499 2.95849-.28267 4.29502-1.18634 8.58981-5.77346 15.53627-12.58859 19.06102-3.21149 1.67141-6.8126 2.51896-10.70374 2.51896-3.89091 0-7.49225-.84755-10.70765-2.52126-6.81145-3.52245-11.39834-10.46914-12.58537-19.06286-.18699-1.3317-.28198-2.77518-.28198-4.29088v-11.49195c2.85591-1.104 11.46688-4.03305 22.425-4.03305 13.97641 0 22.13083 2.88351 24.725 3.97992z" fill="#231f20"/><path d="m47.15 43.125h-3.45v9.2c0 .95289.77234 1.725 1.725 1.725h4.6v-3.45h-2.875z" fill="#231f20"/><path d="m56.35 12.96372-.07728-.24955c-.12167-.39284-.5934-1.39403-2.3391-2.20386-1.87335-.8694-4.73639-1.31031-8.50862-1.31031s-6.63504.44091-8.50885 1.31031c-1.74547.80983-2.2172 1.81102-2.33887 2.20386l-.07728.24955v8.88628h21.85zm-3.45 5.43628h-14.95v-4.53123c.56856-.37306 2.41569-1.21877 7.475-1.21877s6.90644.84571 7.475 1.21877z" fill="#231f20"/></g></svg>

<?xml version="1.0" encoding="UTF-8"?>
<svg width="95px" height="113px" viewBox="0 0 95 113" version="1.1" xmlns="http://www.w3.org/2000/svg" xmlns:xlink="http://www.w3.org/1999/xlink">
    <!-- Generator: Sketch 50.2 (55047) - http://www.bohemiancoding.com/sketch -->
    <title>user-26</title>
    <desc>Created with Sketch.</desc>
    <defs></defs>
    <g id="Page-1" stroke="none" stroke-width="1" fill="none" fill-rule="evenodd">
        <g id="40-Color-Avatars" transform="translate(-1068.000000, -1003.000000)">
            <g id="user-26" transform="translate(1068.880000, 1003.590000)">
                <path d="M91.425,29.325 L91.425,32.775 L70.725,32.775 L70.725,25.875 L87.975,25.875 C89.884,25.875 91.425,27.416 91.425,29.325 L91.425,29.325 Z" id="Shape" fill="#1A68A6"></path>
                <path d="M70.725,25.875 L70.725,32.775 C70.725,32.775 62.192,28.175 44.275,28.175 C30.314,28.175 20.125,32.775 20.125,32.775 L20.125,18.975 C20.125,18.975 19.366,1.725 45.425,1.725 C71.484,1.725 70.725,17.825 70.725,17.825 L70.725,25.875 L70.725,25.875 Z" id="Shape" fill="#1C75BC"></path>
                <path d="M79.649,90.321 C78.131,90.712 70.725,93.449 70.725,109.825 L20.125,109.825 C20.125,93.771 13.018,90.827 11.293,90.367 C14.329,88.251 18.331,86.227 23.575,84.525 C23.575,84.525 31.418,80.431 33.925,77.625 C33.925,77.625 34.431,85.675 45.425,85.675 C56.419,85.675 56.925,77.625 56.925,77.625 C59.432,80.431 67.275,84.525 67.275,84.525 C72.588,86.204 76.613,88.228 79.649,90.321 L79.649,90.321 Z" id="Shape" fill="#E7ECED"></path>
                <path d="M89.125,104.075 L89.125,109.825 L70.725,109.825 C70.725,93.449 78.131,90.712 79.649,90.321 C89.079,96.853 89.125,104.075 89.125,104.075 L89.125,104.075 Z" id="Shape" fill="#EAC4A4"></path>
                <path d="M20.125,109.825 L1.725,109.825 L1.725,104.075 C1.725,104.075 1.84,96.876 11.293,90.367 C13.018,90.827 20.125,93.771 20.125,109.825 L20.125,109.825 Z" id="Shape" fill="#EAC4A4"></path>
                <path d="M56.925,75.325 L56.925,77.625 C56.925,77.625 56.419,85.675 45.425,85.675 C34.431,85.675 33.925,77.625 33.925,77.625 L33.925,75.325 L33.925,70.311 C37.283,72.059 41.147,73.025 45.425,73.025 C49.703,73.025 53.567,72.059 56.925,70.311 L56.925,75.325 L56.925,75.325 Z" id="Shape" fill="#D1B197"></path>
                <path d="M70.725,38.525 C74.543,38.525 77.625,39.951 77.625,43.125 C77.625,46.069 73.991,49.473 70.426,49.956 C70.633,48.484 70.725,46.966 70.725,45.425 L70.725,38.525 L70.725,38.525 Z" id="Shape" fill="#D1B197"></path>
                <path d="M20.125,45.425 C20.125,46.966 20.217,48.484 20.424,49.956 C16.859,49.473 13.225,46.069 13.225,43.125 C13.225,39.951 16.307,38.525 20.125,38.525 L20.125,45.425 L20.125,45.425 Z" id="Shape" fill="#D1B197"></path>
                <path d="M70.725,38.525 L70.725,45.425 C70.725,46.966 70.633,48.484 70.426,49.956 C69.184,58.949 64.308,66.493 56.925,70.311 C53.567,72.059 49.703,73.025 45.425,73.025 C41.147,73.025 37.283,72.059 33.925,70.311 C26.542,66.493 21.666,58.949 20.424,49.956 C20.217,48.484 20.125,46.966 20.125,45.425 L20.125,38.525 L20.125,32.775 C20.125,32.775 30.314,28.175 44.275,28.175 C62.192,28.175 70.725,32.775 70.725,32.775 L70.725,38.525 L70.725,38.525 Z" id="Shape" fill="#EAC4A4"></path>
                <path d="M54.625,13.225 L54.625,20.125 L45.425,20.125 L36.225,20.125 L36.225,13.225 C36.225,13.225 36.938,10.925 45.425,10.925 C53.912,10.925 54.625,13.225 54.625,13.225 L54.625,13.225 Z" id="Shape" fill="#FFFFFF"></path>
                <path d="M93.15,34.5 L93.15,29.325 C93.15,26.47162 90.82838,24.15 87.975,24.15 L72.45,24.15 L72.45,17.85306 C72.46748,17.23413 72.47392,11.99289 68.0064,7.30963 C63.37926,2.45916 55.78167,0 45.425,0 C35.38044,0 27.91763,2.47618 23.24426,7.35977 C18.35584,12.46784 18.38206,18.36849 18.4,19.00306 L18.4,36.89338 C14.10084,37.36902 11.5,39.66511 11.5,43.125 C11.5,46.54303 14.94609,50.25891 18.90508,51.39258 C20.43389,60.17122 25.21352,67.33986 32.2,71.33289 L32.2,76.92281 C30.01822,78.98085 24.95316,81.8501 22.90248,82.92972 C17.95748,84.54685 13.72019,86.57269 10.31481,88.94606 C0.24518,95.87964 0.00552,103.71712 0.00023,104.04717 L0,111.55 L90.85,111.55 L90.85,104.06396 C90.8477,103.73253 90.68256,95.86538 80.62811,88.90075 C77.17029,86.5168 72.90241,84.50706 67.94177,82.9265 C65.88741,81.84458 60.82994,78.97901 58.65023,76.92258 L58.65023,71.33266 C65.63901,67.33687 70.41795,60.16754 71.94515,51.39235 C75.90414,50.25868 79.35,46.54303 79.35,43.125 C79.35,39.66488 76.74916,37.36902 72.45,36.89338 L72.45,34.5 L93.15,34.5 L93.15,34.5 Z M72.45,27.6 L87.975,27.6 C88.92628,27.6 89.7,28.37372 89.7,29.325 L89.7,31.05 L72.45,31.05 L72.45,27.6 L72.45,27.6 Z M25.78806,9.69197 C29.79144,5.55013 36.39819,3.45 45.425,3.45 C54.75288,3.45 61.4905,5.52897 65.45041,9.62895 C69.10833,13.41636 69.00759,17.57867 69.00184,17.74358 L69.00023,30.16082 C65.18959,28.74034 57.06323,26.45 44.275,26.45 C33.97698,26.45 25.74528,28.85741 21.85,30.24776 L21.85,18.975 L21.84862,18.90761 C21.84172,18.70475 21.72649,13.89361 25.78806,9.69197 L25.78806,9.69197 Z M14.95,43.125 C14.95,42.38164 15.32559,40.79188 18.4,40.36086 C18.4,40.36086 18.42323,46.82961 18.46118,47.5111 C16.47421,46.45195 14.95,44.53398 14.95,43.125 L14.95,43.125 Z M55.2,77.54243 C55.17056,77.79497 54.95367,79.29388 53.81862,80.74495 C52.1548,82.87176 49.33063,83.95 45.425,83.95 C41.51937,83.95 38.69543,82.87176 37.03138,80.74472 C35.8961,79.29365 35.67921,77.79474 35.65,77.5422 L35.65,72.97808 C38.68186,74.15315 41.95752,74.74977 45.425,74.74977 C48.89317,74.74977 52.16952,74.15292 55.2,72.97854 L55.2,77.54243 L55.2,77.54243 Z M3.45,104.09524 C3.45851,103.85328 3.76556,97.98805 11.56302,92.29164 C13.5332,93.16633 17.97013,96.42957 18.3701,108.1 L3.45,108.1 L3.45,104.09524 L3.45,104.09524 Z M87.4,104.09317 L87.4,108.1 L72.48404,108.1 C72.68644,102.45557 73.89233,97.98161 76.00833,95.09971 C77.25792,93.39771 78.55351,92.6049 79.37323,92.24426 C87.09249,97.9156 87.38942,103.74518 87.4,104.09317 L87.4,104.09317 Z M66.7552,86.16973 C70.2834,87.28477 73.42313,88.62015 76.12655,90.15264 C75.19896,90.81573 74.1888,91.74815 73.2274,93.05754 C70.64772,96.57079 69.24104,101.62826 69.03105,108.09977 L21.81895,108.09977 C21.61287,101.7428 20.25265,96.7495 17.76129,93.24821 C16.77689,91.86476 15.73476,90.8891 14.78072,90.2014 C17.46091,88.66178 20.58523,87.30892 24.10745,86.16559 C24.10745,86.16559 29.75901,83.21354 33.02041,80.72287 C33.29917,81.34272 33.66924,82.00995 34.16949,82.68086 C35.77466,84.83389 39.03054,87.4 45.425,87.4 C51.81946,87.4 55.07534,84.83389 56.68074,82.68109 C57.18099,82.01018 57.55106,81.34295 57.82982,80.7231 C61.09099,83.21377 66.7552,86.16973 66.7552,86.16973 L66.7552,86.16973 Z M75.9,43.125 C75.9,44.53398 74.37579,46.45218 72.38882,47.5111 C72.42677,46.82938 72.45,40.36086 72.45,40.36086 C75.52441,40.79188 75.9,42.38164 75.9,43.125 L75.9,43.125 Z M69,45.425 C69,46.94001 68.90501,48.38349 68.71733,49.72002 C67.53099,58.30983 62.94387,65.25629 56.12874,68.78104 C52.91725,70.45245 49.31614,71.3 45.425,71.3 C41.53409,71.3 37.93275,70.45245 34.71735,68.77874 C27.9059,65.25629 23.31901,58.3096 22.13198,49.71588 C21.94499,48.38418 21.85,46.9407 21.85,45.425 L21.85,33.93305 C24.70591,32.82905 33.31688,29.9 44.275,29.9 C58.25141,29.9 66.40583,32.78351 69,33.87992 L69,45.425 L69,45.425 Z" id="Shape" fill="#231F20"></path>
                <path d="M47.15,43.125 L43.7,43.125 L43.7,52.325 C43.7,53.27789 44.47234,54.05 45.425,54.05 L50.025,54.05 L50.025,50.6 L47.15,50.6 L47.15,43.125 L47.15,43.125 Z" id="Shape" fill="#231F20"></path>
                <path d="M56.35,12.96372 L56.27272,12.71417 C56.15105,12.32133 55.67932,11.32014 53.93362,10.51031 C52.06027,9.64091 49.19723,9.2 45.425,9.2 C41.65277,9.2 38.78996,9.64091 36.91615,10.51031 C35.17068,11.32014 34.69895,12.32133 34.57728,12.71417 L34.5,12.96372 L34.5,21.85 L56.35,21.85 L56.35,12.96372 L56.35,12.96372 Z M52.9,18.4 L37.95,18.4 L37.95,13.86877 C38.51856,13.49571 40.36569,12.65 45.425,12.65 C50.48431,12.65 52.33144,13.49571 52.9,13.86877 L52.9,18.4 L52.9,18.4 Z" id="Shape" fill="#231F20"></path>
            </g>
        </g>
    </g>
</svg>
